modules/framework7-icons/icons/play_round.svg

<?xml version="1.0" encoding="UTF-8"?>
<svg width="50px" height="50px" viewBox="0 0 50 50" version="1.1" xmlns="http://www.w3.org/2000/svg" xmlns:xlink="http://www.w3.org/1999/xlink">
    <!-- Generator: Sketch 40.1 (33804) - http://www.bohemiancoding.com/sketch -->
    <title>play_round</title>
    <desc>Created with Sketch.</desc>
    <defs></defs>
    <g id="Page-1" stroke="none" stroke-width="1" fill="none" fill-rule="evenodd">
        <g id="play_round" fill="#000000">
            <path d="M48,25 C48,12.2974508 37.7025492,2 25,2 C12.2974508,2 2,12.2974508 2,25 C2,37.7025492 12.2974508,48 25,48 C37.7025492,48 48,37.7025492 48,25 Z M0,25 C0,11.1928813 11.1928813,0 25,0 C38.8071187,0 50,11.1928813 50,25 C50,38.8071187 38.8071187,50 25,50 C11.1928813,50 0,38.8071187 0,25 Z" id="Oval-30"></path>
            <path d="M20.4837974,34.8961229 C18.5597492,35.9838944 17,35.0701633 17,32.8736052 L17,17.4807244 C17,15.2759471 18.5539606,14.3671625 20.4837974,15.4582067 L34.1908744,23.2075802 C36.1149226,24.2953517 36.1207112,26.0557052 34.1908744,27.1467494 L20.4837974,34.8961229 Z" id="Triangle-5"></path>
        </g>
    </g>
</svg>

<svg width="50" height="50" viewBox="0 0 50 50" xmlns="http://www.w3.org/2000/svg"><g fill="#000" fill-rule="evenodd"><path d="M48 25C48 12.297 37.703 2 25 2S2 12.297 2 25s10.297 23 23 23 23-10.297 23-23zM0 25C0 11.193 11.193 0 25 0s25 11.193 25 25-11.193 25-25 25S0 38.807 0 25z"/><path d="M20.484 34.896C18.56 35.984 17 35.07 17 32.874V17.48c0-2.205 1.554-3.114 3.484-2.023l13.707 7.75c1.924 1.087 1.93 2.848 0 3.939l-13.707 7.75z"/></g></svg>
